icon/fa/square-share-nodes.svg

<svg xmlns="http://www.w3.org/2000/svg" viewBox="0 0 448 512"><!--! Font Awesome Free 6.1.2 by @fontawesome - https://fontawesome.com License - https://fontawesome.com/license/free (Icons: CC BY 4.0, Fonts: SIL OFL 1.1, Code: MIT License) Copyright 2022 Fonticons, Inc.--><path d="M384 32c35.3 0 64 28.65 64 64v320c0 35.3-28.7 64-64 64H64c-35.35 0-64-28.7-64-64V96c0-35.35 28.65-64 64-64h320zm-64 64c-35.3 0-64 28.7-64 64 0 2.5.1 4.9.4 7.3L174.5 212c-11.7-12.3-28.2-20-46.5-20-35.35 0-64 28.7-64 64s28.65 64 64 64c18.3 0 34.8-7.7 46.5-20.9l81.9 45.6c-.3 2.4-.4 4.8-.4 7.3 0 35.3 28.7 64 64 64s64-28.7 64-64-28.7-64-64-64c-15.4 0-29.5 5.4-40.6 14.5L194.1 256l85.3-46.5c11.1 9.1 25.2 14.5 40.6 14.5 35.3 0 64-28.7 64-64s-28.7-64-64-64z"/></svg>

<svg xmlns="http://www.w3.org/2000/svg" viewBox="0 0 448 512" height="1em" width="1em">
<!--! Font Awesome Free 6.1.2 by @fontawesome - https://fontawesome.com License - https://fontawesome.com/license/free (Icons: CC BY 4.0, Fonts: SIL OFL 1.1, Code: MIT License) Copyright 2022 Fonticons, Inc.-->
  <path d="M384 32C419.3 32 448 60.65 448 96V416C448 451.3 419.3 480 384 480H64C28.65 480 0 451.3 0 416V96C0 60.65 28.65 32 64 32H384zM320 96C284.7 96 256 124.7 256 160C256 162.5 256.1 164.9 256.4 167.3L174.5 212C162.8 199.7 146.3 192 128 192C92.65 192 64 220.7 64 256C64 291.3 92.65 320 128 320C146.3 320 162.8 312.3 174.5 299.1L256.4 344.7C256.1 347.1 256 349.5 256 352C256 387.3 284.7 416 320 416C355.3 416 384 387.3 384 352C384 316.7 355.3 288 320 288C304.6 288 290.5 293.4 279.4 302.5L194.1 256L279.4 209.5C290.5 218.6 304.6 224 320 224C355.3 224 384 195.3 384 160C384 124.7 355.3 96 320 96V96z"/>
</svg>
